remix/System/settings-4-fill.svg

<svg viewBox="0 0 24 24" fill="currentColor" xmlns="http://www.w3.org/2000/svg"><path d="M5.33409 4.54491C6.3494 3.63637 7.55145 2.9322 8.87555 2.49707C9.60856 3.4128 10.7358 3.99928 12 3.99928C13.2642 3.99928 14.3914 3.4128 15.1245 2.49707C16.4486 2.9322 17.6506 3.63637 18.6659 4.54491C18.2405 5.637 18.2966 6.90531 18.9282 7.99928C19.5602 9.09388 20.6314 9.77679 21.7906 9.95392C21.9279 10.6142 22 11.2983 22 11.9993C22 12.7002 21.9279 13.3844 21.7906 14.0446C20.6314 14.2218 19.5602 14.9047 18.9282 15.9993C18.2966 17.0932 18.2405 18.3616 18.6659 19.4536C17.6506 20.3622 16.4486 21.0664 15.1245 21.5015C14.3914 20.5858 13.2642 19.9993 12 19.9993C10.7358 19.9993 9.60856 20.5858 8.87555 21.5015C7.55145 21.0664 6.3494 20.3622 5.33409 19.4536C5.75952 18.3616 5.7034 17.0932 5.0718 15.9993C4.43983 14.9047 3.36862 14.2218 2.20935 14.0446C2.07212 13.3844 2 12.7002 2 11.9993C2 11.2983 2.07212 10.6142 2.20935 9.95392C3.36862 9.77679 4.43983 9.09388 5.0718 7.99928C5.7034 6.90531 5.75952 5.637 5.33409 4.54491ZM13.5 14.5974C14.9349 13.7689 15.4265 11.9342 14.5981 10.4993C13.7696 9.0644 11.9349 8.57277 10.5 9.4012C9.06512 10.2296 8.5735 12.0644 9.40192 13.4993C10.2304 14.9342 12.0651 15.4258 13.5 14.5974Z"/></svg>

<svg viewBox="0 0 24 24" xmlns="http://www.w3.org/2000/svg"><path fill="none" d="M0 0h24v24H0Z"/><path d="M5.33 4.545v0c1.02-.92 2.23-1.62 3.54-2.05v-.001c.75.95 1.9 1.5 3.12 1.5l0 0c1.21 0 2.36-.56 3.12-1.51v-.001c1.3.43 2.51 1.12 3.54 2.04v0c-.45 1.13-.35 2.4.26 3.45V7.97c.6 1.05 1.66 1.77 2.86 1.955v-.001c.28 1.34.28 2.74 0 4.09 -1.16.17-2.23.86-2.87 1.955l0-.001c-.61 1.05-.71 2.32-.27 3.455v0c-1.03.91-2.24 1.61-3.55 2.04v0c-.76-.95-1.91-1.51-3.13-1.51v0c-1.22-.01-2.37.55-3.13 1.5v0c-1.31-.44-2.52-1.13-3.55-2.05v0c.44-1.14.34-2.41-.27-3.455v-.001c-.61-1.06-1.67-1.78-2.87-1.96v0c-.29-1.35-.29-2.75-.001-4.1V9.88c1.2-.19 2.25-.91 2.86-1.96v0c.6-1.06.7-2.33.26-3.46Zm8.166 10.052v-.001c1.44-.82 1.94-2.66 1.12-4.1 -.82-1.45-2.66-1.95-4.1-1.13 -.02 0-.03.01-.04.01v0c-1.43.83-1.91 2.67-1.08 4.1 .83 1.41 2.64 1.9 4.07 1.09Z"/></svg>
